img/instagram.svg

<svg width="30" height="30" viewBox="0 0 30 30" fill="none" xmlns="http://www.w3.org/2000/svg">
<path fill-rule="evenodd" clip-rule="evenodd" d="M15 0C10.9262 0 10.4163 0.0175 8.81625 0.09C3.36875 0.34 0.34125 3.3625 0.09125 8.815C0.0175 10.4163 0 10.9262 0 15C0 19.0737 0.0175 19.585 0.09 21.185C0.34 26.6325 3.3625 29.66 8.815 29.91C10.4163 29.9825 10.9262 30 15 30C19.0737 30 19.585 29.9825 21.185 29.91C26.6275 29.66 29.6625 26.6375 29.9088 21.185C29.9825 19.585 30 19.0737 30 15C30 10.9262 29.9825 10.4163 29.91 8.81625C29.665 3.37375 26.6388 0.34125 21.1862 0.09125C19.585 0.0175 19.0737 0 15 0ZM15.0001 2.70386C19.0051 2.70386 19.4801 2.71886 21.0626 2.79136C25.1276 2.97636 27.0264 4.90511 27.2114 8.94011C27.2839 10.5214 27.2976 10.9964 27.2976 15.0014C27.2976 19.0076 27.2826 19.4814 27.2114 21.0626C27.0251 25.0939 25.1314 27.0264 21.0626 27.2114C19.4801 27.2839 19.0076 27.2989 15.0001 27.2989C10.9951 27.2989 10.5201 27.2839 8.93889 27.2114C4.86389 27.0251 2.97514 25.0876 2.79014 21.0614C2.71764 19.4801 2.70264 19.0064 2.70264 15.0001C2.70264 10.9951 2.71889 10.5214 2.79014 8.93886C2.97639 4.90511 4.87014 2.97511 8.93889 2.79011C10.5214 2.71886 10.9951 2.70386 15.0001 2.70386ZM7.29736 14.9999C7.29736 10.7461 10.7461 7.29736 14.9999 7.29736C19.2536 7.29736 22.7024 10.7461 22.7024 14.9999C22.7024 19.2549 19.2536 22.7036 14.9999 22.7036C10.7461 22.7036 7.29736 19.2536 7.29736 14.9999ZM15 20C12.2387 20 10 17.7625 10 15C10 12.2387 12.2387 10 15 10C17.7612 10 20 12.2387 20 15C20 17.7625 17.7612 20 15 20ZM21.2061 6.99348C21.2061 5.99973 22.0123 5.19348 23.0073 5.19348C24.0011 5.19348 24.8061 5.99973 24.8061 6.99348C24.8061 7.98723 24.0011 8.79348 23.0073 8.79348C22.0123 8.79348 21.2061 7.98723 21.2061 6.99348Z" fill="#333333"/>
</svg>

<svg xmlns="http://www.w3.org/2000/svg" width="30" height="30" fill="none"><path fill="#333" fill-rule="evenodd" d="M15 0c-4.074 0-4.584.018-6.184.09C3.37.34.341 3.362.091 8.815.018 10.416 0 10.926 0 15s.018 4.585.09 6.185c.25 5.448 3.272 8.475 8.725 8.725 1.601.073 2.111.09 6.185.09s4.585-.017 6.185-.09c5.443-.25 8.478-3.273 8.724-8.725.074-1.6.091-2.111.091-6.185s-.017-4.584-.09-6.184C29.665 3.374 26.639.341 21.186.091 19.585.018 19.074 0 15 0Zm0 2.704c4.005 0 4.48.015 6.063.087 4.065.185 5.963 2.114 6.148 6.15.073 1.58.087 2.055.087 6.06 0 4.007-.015 4.48-.087 6.062-.186 4.03-2.08 5.963-6.148 6.148-1.583.073-2.055.088-6.063.088-4.005 0-4.48-.015-6.061-.088-4.075-.186-5.964-2.123-6.149-6.15-.072-1.58-.087-2.055-.087-6.06 0-4.006.016-4.48.087-6.062.186-4.034 2.08-5.964 6.149-6.149 1.582-.071 2.056-.086 6.061-.086ZM7.297 15a7.703 7.703 0 1 1 15.406 0 7.703 7.703 0 0 1-15.406 0ZM15 20a5 5 0 1 1 0-10 5 5 0 0 1 0 10Zm6.206-13.007a1.8 1.8 0 1 1 3.601.002 1.8 1.8 0 0 1-3.6-.002Z" clip-rule="evenodd"/></svg>
